Numix-Light/16/status/indicator-keyboard-Es-4.svg

<?xml version="1.0" encoding="UTF-8" standalone="no"?>
<svg
   xmlns:dc="http://purl.org/dc/elements/1.1/"
   xmlns:cc="http://creativecommons.org/ns#"
   xmlns:rdf="http://www.w3.org/1999/02/22-rdf-syntax-ns#"
   xmlns:svg="http://www.w3.org/2000/svg"
   xmlns="http://www.w3.org/2000/svg"
   xmlns:sodipodi="http://sodipodi.sourceforge.net/DTD/sodipodi-0.dtd"
   xmlns:inkscape="http://www.inkscape.org/namespaces/inkscape"
   viewBox="0 0 16 16"
   id="svg2"
   version="1.1"
   inkscape:version="0.91 r13725"
   sodipodi:docname="indicator-keyboard-Es-4.svg">
  <metadata
     id="metadata14">
    <rdf:RDF>
      <cc:Work
         rdf:about="">
        <dc:format>image/svg+xml</dc:format>
        <dc:type
           rdf:resource="http://purl.org/dc/dcmitype/StillImage" />
      </cc:Work>
    </rdf:RDF>
  </metadata>
  <defs
     id="defs12" />
  <sodipodi:namedview
     pagecolor="#ffffff"
     bordercolor="#666666"
     borderopacity="1"
     objecttolerance="10"
     gridtolerance="10"
     guidetolerance="10"
     inkscape:pageopacity="0"
     inkscape:pageshadow="2"
     inkscape:window-width="640"
     inkscape:window-height="480"
     id="namedview10"
     showgrid="false"
     inkscape:zoom="14.75"
     inkscape:cx="8"
     inkscape:cy="8"
     inkscape:window-x="65"
     inkscape:window-y="24"
     inkscape:window-maximized="0"
     inkscape:current-layer="svg2" />
  <path
     style="fill:#353535;fill-opacity:1"
     d="M 1.5996094 0 C 0.71320937 2.9605947e-16 0 0.71320937 0 1.5996094 L 0 14.400391 C 2.9605947e-16 15.286791 0.71320937 16 1.5996094 16 L 14.400391 16 C 15.286791 16 16 15.286791 16 14.400391 L 16 1.5996094 C 16 0.71320937 15.286791 0 14.400391 0 L 1.5996094 0 z M 2.4804688 4.859375 L 6.0800781 4.859375 L 6.0800781 5.390625 L 3.0917969 5.390625 L 3.0917969 7.5585938 L 5.7558594 7.5585938 L 5.7558594 8.0800781 L 3.0917969 8.0800781 L 3.0917969 10.564453 L 6.3144531 10.564453 L 6.3144531 11.095703 L 2.4804688 11.095703 L 2.4804688 4.859375 z M 8.6972656 6.3359375 C 9.0152656 6.3359375 9.2764687 6.3620156 9.4804688 6.4160156 C 9.6904687 6.4700156 9.8359219 6.5185469 9.9199219 6.5605469 L 9.7851562 7.0820312 C 9.7131563 7.0460313 9.5900156 6.9975 9.4160156 6.9375 C 9.2480156 6.8775 8.9999219 6.8476563 8.6699219 6.8476562 C 8.5379219 6.8476562 8.4110156 6.8625781 8.2910156 6.8925781 C 8.1770156 6.9165781 8.0763281 6.9595312 7.9863281 7.0195312 C 7.8963281 7.0735313 7.8235312 7.144375 7.7695312 7.234375 C 7.7155312 7.318375 7.6894531 7.4247813 7.6894531 7.5507812 C 7.6894531 7.6767812 7.7137188 7.7830469 7.7617188 7.8730469 C 7.8097187 7.9630469 7.87875 8.0451875 7.96875 8.1171875 C 8.06475 8.1831875 8.1785469 8.2466406 8.3105469 8.3066406 C 8.4485469 8.3666406 8.6033438 8.4319063 8.7773438 8.5039062 C 8.9573437 8.5759062 9.1290156 8.6505156 9.2910156 8.7285156 C 9.4590156 8.8005156 9.6064219 8.8900469 9.7324219 8.9980469 C 9.8584219 9.1000469 9.9591094 9.2269531 10.037109 9.3769531 C 10.115109 9.5209531 10.154297 9.7037812 10.154297 9.9257812 C 10.154297 10.345781 9.9957344 10.664859 9.6777344 10.880859 C 9.3657344 11.096859 8.936625 11.203125 8.390625 11.203125 C 7.982625 11.203125 7.6710781 11.167703 7.4550781 11.095703 C 7.2390781 11.029703 7.0954375 10.979359 7.0234375 10.943359 L 7.1757812 10.412109 C 7.1937813 10.424109 7.2329687 10.444609 7.2929688 10.474609 C 7.3529687 10.498609 7.4331563 10.528453 7.5351562 10.564453 C 7.6371563 10.594453 7.7584844 10.622484 7.8964844 10.646484 C 8.0404844 10.670484 8.204625 10.681641 8.390625 10.681641 C 8.726625 10.681641 9.00275 10.627531 9.21875 10.519531 C 9.44075 10.405531 9.5527344 10.217125 9.5527344 9.953125 C 9.5527344 9.827125 9.5302813 9.7189063 9.4882812 9.6289062 C 9.4522812 9.5389062 9.3907813 9.4587188 9.3007812 9.3867188 C 9.2107812 9.3147187 9.0894531 9.2456875 8.9394531 9.1796875 C 8.7954531 9.1136875 8.6163906 9.0353125 8.4003906 8.9453125 C 8.2263906 8.8733125 8.0602969 8.8005156 7.9042969 8.7285156 C 7.7482969 8.6505156 7.6102344 8.56475 7.4902344 8.46875 C 7.3702344 8.36675 7.275125 8.2454219 7.203125 8.1074219 C 7.131125 7.9694219 7.0957031 7.8015156 7.0957031 7.6035156 C 7.0957031 7.2255156 7.2355781 6.9195469 7.5175781 6.6855469 C 7.8055781 6.4515469 8.1992656 6.3359375 8.6972656 6.3359375 z M 12.619141 8.8417969 L 13.015625 8.8417969 L 13.015625 11.486328 L 13.519531 11.486328 L 13.519531 11.796875 L 13.015625 11.796875 L 13.015625 12.896484 L 12.642578 12.896484 L 12.642578 11.796875 L 10.804688 11.796875 L 10.804688 11.5625 C 10.874887 11.3753 10.972856 11.163687 11.097656 10.929688 C 11.226356 10.695688 11.37135 10.456637 11.53125 10.210938 C 11.69115 9.9652374 11.863581 9.7261874 12.050781 9.4921875 C 12.237981 9.2542875 12.428041 9.0367969 12.619141 8.8417969 z M 12.642578 9.2695312 C 12.506078 9.4099312 12.366962 9.5706063 12.226562 9.7539062 C 12.086163 9.9372063 11.950966 10.129225 11.822266 10.328125 C 11.697466 10.523125 11.581856 10.719069 11.472656 10.917969 C 11.363456 11.116869 11.271366 11.306928 11.197266 11.486328 L 12.642578 11.486328 L 12.642578 9.2695312 z "
     id="path4" />
</svg>

<svg xmlns="http://www.w3.org/2000/svg" viewBox="0 0 16 16">
 <path d="m 1.6 0 c -0.886 0 -1.6 0.713 -1.6 1.6 l 0 12.801 c 0 0.886 0.713 1.6 1.6 1.6 l 12.801 0 c 0.886 0 1.6 -0.713 1.6 -1.6 l 0 -12.801 c 0 -0.886 -0.713 -1.6 -1.6 -1.6 l -12.801 0 z m 0.881 4.859 l 3.6 0 l 0 0.531 l -2.988 0 l 0 2.168 l 2.664 0 l 0 0.521 l -2.664 0 l 0 2.484 l 3.223 0 l 0 0.531 l -3.834 0 l 0 -6.236 z m 6.217 1.477 c 0.318 0 0.579 0.026 0.783 0.08 c 0.21 0.054 0.355 0.103 0.439 0.145 l -0.135 0.521 c -0.072 -0.036 -0.195 -0.085 -0.369 -0.145 c -0.168 -0.06 -0.416 -0.09 -0.746 -0.09 c -0.132 0 -0.259 0.015 -0.379 0.045 c -0.114 0.024 -0.215 0.067 -0.305 0.127 c -0.09 0.054 -0.163 0.125 -0.217 0.215 c -0.054 0.084 -0.08 0.19 -0.08 0.316 c 0 0.126 0.024 0.232 0.072 0.322 c 0.048 0.09 0.117 0.172 0.207 0.244 c 0.096 0.066 0.21 0.129 0.342 0.189 c 0.138 0.06 0.293 0.125 0.467 0.197 c 0.18 0.072 0.352 0.147 0.514 0.225 c 0.168 0.072 0.315 0.162 0.441 0.27 c 0.126 0.102 0.227 0.229 0.305 0.379 c 0.078 0.144 0.117 0.327 0.117 0.549 c 0 0.42 -0.159 0.739 -0.477 0.955 c -0.312 0.216 -0.741 0.322 -1.287 0.322 c -0.408 0 -0.72 -0.035 -0.936 -0.107 c -0.216 -0.066 -0.36 -0.116 -0.432 -0.152 l 0.152 -0.531 c 0.018 0.012 0.057 0.033 0.117 0.063 c 0.06 0.024 0.14 0.054 0.242 0.09 c 0.102 0.03 0.223 0.058 0.361 0.082 c 0.144 0.024 0.308 0.035 0.494 0.035 c 0.336 0 0.612 -0.054 0.828 -0.162 c 0.222 -0.114 0.334 -0.302 0.334 -0.566 c 0 -0.126 -0.022 -0.234 -0.064 -0.324 c -0.036 -0.09 -0.097 -0.17 -0.188 -0.242 c -0.09 -0.072 -0.211 -0.141 -0.361 -0.207 c -0.144 -0.066 -0.323 -0.144 -0.539 -0.234 c -0.174 -0.072 -0.34 -0.145 -0.496 -0.217 c -0.156 -0.078 -0.294 -0.164 -0.414 -0.26 c -0.12 -0.102 -0.215 -0.223 -0.287 -0.361 c -0.072 -0.138 -0.107 -0.306 -0.107 -0.504 c 0 -0.378 0.14 -0.684 0.422 -0.918 c 0.288 -0.234 0.682 -0.35 1.18 -0.35 z m 3.922 2.506 l 0.396 0 l 0 2.645 l 0.504 0 l 0 0.311 l -0.504 0 l 0 1.1 l -0.373 0 l 0 -1.1 l -1.838 0 l 0 -0.234 c 0.07 -0.187 0.168 -0.399 0.293 -0.633 c 0.129 -0.234 0.274 -0.473 0.434 -0.719 c 0.16 -0.246 0.332 -0.485 0.52 -0.719 c 0.187 -0.238 0.377 -0.455 0.568 -0.65 z m 0.023 0.428 c -0.136 0.14 -0.276 0.301 -0.416 0.484 c -0.14 0.183 -0.276 0.375 -0.404 0.574 c -0.125 0.195 -0.24 0.391 -0.35 0.59 c -0.109 0.199 -0.201 0.389 -0.275 0.568 l 1.445 0 l 0 -2.217 z" style="fill:#353535;fill-opacity:1"/>
</svg>
